X: 013
T: Sir Archd Dunbar of Northfield's Strathspey
C: by Wm Christie
R: strathspey
B: William Christie's "A Collection of Strathspeys, Reels, Hornpipes, Waltzes, &c."
S: https://digital.nls.uk/special-collections-of-printed-music/archive/120545033
Z: 2022 John Chambers <jc:trillian.mit.edu>
M: C
L: 1/8
K: F
%%slurgraces yes
%%graceslurs yes
% = = = = = = = = = =
V: 1 staves=2
A |\
F>c d/c/B/A/ F>c A>f | ~F>f .d/.c/.B/.A/ .G(CE.G) |\
F>c d/c/B/A/ F>c A>f | (3.d(.f.d) {d}Tc>B .A(FA>.f) ||\
F>c d/c/B/A/ F>c A>f | ~F>f .d/.c/.B/.A/ .G(CD.G) |
(3FAc (3BAG (3FAc (3Acf | (3.d(.f.d) {d}c>B .A>(FA.c) |]\
[|\
~f>g (b/a/).g/.f/ {ef}g2 c>_e | (3.d(.b.d) (3.c(.a.c) B<G e>g |\
~f>g (b/a/).g/.f/ {ef}g2 c>_e |
| d<b ~B>d (c/B/).A/.G/ F>c ||\
~f>g (b/a/).g/.f/ {ef}g2 c>_e | (3.d(.b.d) (3.c(.a.c) B<G {AB}Tc>B |\
A<F B>d c>f {b}a>g | f>cd<f (c/B/).A/.G/ F |]
% = = = = = = = = = =
% Voice 2 preserves the staff layout in the book.
V: 2 clef=bass middle=d
z |\
F2f2 a2f2 | F2f2 e2c2 | A2F2 f2f2 | B2c2 F2f2 || F2f2 a2f2 |
a2f2 e2c2 | F2G2 A2A2 | B2c2 F2f2 |] [|\
[A2a2][F2f2] [c2c'2][A2a2] | [B2b2][A2a2] [B2b2][c2c'2] | [A2a2][F2f2] [c2c'2][A2a2] |
[B2b2][B2b2] [c2c'2][F2f2] || [A2a2][F2f2] [c2c'2][A2a2] | [B2b2][A2a2][G2g2][E2e2] | [F2f2]B2 A2F2 | A2B2 c2F |]
% = = = = = = = = = =
